src/assets/icons/hand-waiting.svg

<svg xmlns="http://www.w3.org/2000/svg" width="100%" height="100%" viewBox="0 0 579 637" fill="none"><path d="M163.277 116.736l-48.839 121.605 8.737 69.166-10.904 1.273-34.985 15.364-30.032 60.552 20.917 95.144 40.183 34.29 45.16 2.663 21.419-21.783 64.081 16.849 135.375-34.555 43.996-55.051 31.432-31.069 53.688-66.11.175-29.346 1.15-44.181-4.078-33.367-25.203-2.195-.998-14.054 10.038-33.249-24.106-14.796-36.148 10.501-22.053 50.931-28.4 45.458-17.034 7.881 24.834-57.355 12.62-39.214 2.19-41.55-4.645-39.607-25.695-11.126-30.685 24.309-6.367 34.838-8.443 45.926-31.887 47.218-33.788 28.959-55.864-1.85-13.42-28.15 12.549-20.174 21.414-38.131-.7-41.167-26.707-21.372-28.978 6.524z" fill="#f6f6f6"/><path d="M368.904 74.609c-16.459.7-37.177 20.19-43.302 40.307-1.609 5.707-2.893 19.618-2.967 30.733.346 19.598.009 20.875-8.215 39.371-15.316 34.874-41.013 62.881-64.283 70.356-32.222 10.24-57.309 1.512-60.315-20.898-.827-6.05-.213-6.97 10.582-17.475 14.071-13.593 20.72-24.47 24.666-40.549 4.119-16.479 3.581-31.654-1.226-43.933-12.8-31.632-42.112-40.054-63.504-18.01-6.984 7.174-8.03 9.093-14.925 31.485-5.797 18.362-10.38 28.947-19.787 46.694-19.602 36.812-21.057 46.144-12.33 86.684l4.734 23.395-8.994.375c-11.241.588-21.853 6.191-34.61 17.744-8.859 8.023-10.519 10.861-19.599 31.833-8.129 18.774-10.257 25.679-11.567 38.157-3.14 31.133 5.735 69.84 22.114 95.194 11.104 17.141 22.254 26.712 39.669 34.252 12.516 5.42 16.49 6.192 29.165 5.276 17.799-1.306 32.092-7.45 39.664-16.979l5.636-7.046 11.247 4.87c6.168 2.67 20.362 6.207 31.368 7.652 39.43 5.452 83.48-2.75 132.329-24.527 35.992-15.96 48.049-26.393 60.923-51.651 4.609-9.152 10.298-18.31 12.519-19.957 2.126-1.925 11.401-11.903 20.313-22.037 9.179-10.256 21.021-22.679 26.336-27.493 15.774-14.042 25.542-26.651 31.249-39.833 4.843-11.185 5.225-15.052 4.689-35.206-.583-12.585-.075-29.679 1.035-38.211 3.208-27.309-7.766-47.239-25.763-46.968l-7.646.247 4.316-10.464c6.226-14.381 6.679-24.383 1.906-34.751-10.566-22.363-38.861-24.178-62.084-3.876-9.836 8.786-8.271 5.669-30.956 61.543-6.728 16.535-10.567 23.411-17.353 31.62l-8.817 10.413 16.821-41.337c18.361-45.888 20.283-54.306 20.525-96.655.315-33.067-11.885-51.157-33.563-50.345zm19.67 28.202c3.78 10.175 4.017 23.559.963 54.492l-2.438 25.034-16.752 40.181c-17.348 42.057-23.444 53.648-29.493 57.669-3.474 2.054-4.563 1.583-12.327-4.863-10.045-8.144-22.026-13.806-23.237-11.01-.432.999 1.131 2.862 3.67 3.961 6.894 2.985 20.737 17.28 27.23 28.155 11.216 18.375 20.801 51.461 21.363 73.049.11 6.214 1.238 14.055 2.196 17.316 1.139 3.339 1.129 7.841.264 9.838-.951 2.197-1.844 7.74-2.035 12.164-.279 4.623-2.641 13.561-5.227 20.031-4.834 11.662-4.834 11.662.266 4.858 5.454-7.125 7.338-7.495 8.796-1.409 1.069 4.495 5.526 7.136 6.824 4.14.518-1.198.139-2.311-.95-2.782-1.995-.864-4.223-25.072-2.58-28.867.778-1.797 2.765-1.411 6.048.959 2.738 2.134 5.182 2.955 5.528 2.156s-1.31-7.919-3.613-16.032c-7.377-25.251-.87-49.234 17.824-66.042 9.75-8.586 28.82-14.322 36.62-10.945 12.699 5.498 12.132 19.246-2.049 47.022-7.306 14.387-10.135 22.412-13.883 39.525-8.837 39.814-15.952 49.777-47.944 67.944-58.557 32.752-130.141 41.365-176.762 21.179-28.118-12.175-52.593-37.24-58.761-60.307-2.011-6.8-4.177-12.244-4.981-11.881-4.821 2.182 3.389 38.941 9.194 41.454 1.088.471 1.468 1.584 1.035 2.583-1.989 4.594-16.332-12.527-22.064-26.155-1.976-4.888-4.1-7.942-4.619-6.744-1.297 2.996 10.159 24.795 17.698 33.752 3.584 4.16 9.612 9.142 13.784 10.949 3.991 1.728 10.366 5.911 14.209 9.473 3.662 3.483 8.689 7.794 11.332 9.649 2.375 1.978 3.946 4.318 3.427 5.517-.432.998-6.758 4.663-13.991 7.935-16.341 7.392-30.847 6.566-48.65-2.566-33.878-17.277-55.403-74.032-46.553-123.326 6.313-34.977 29.186-64.918 51.823-67.45 3.595-.341 7.024.196 7.758.988 1.762 2.897-2.246 20.61-7.175 31.994-5.189 11.984-7.249 22.713-6.19 31.71 1.232 8.597 3.09 6.793 3.543-3.209.279-4.623 1.344-10.565 2.382-12.962 1.997-4.116 2.368-3.481 4.326 5.431 1.354 5.329 3.512 10.296 4.963 10.924 3.266 1.414 3.525.815 3.236-10.458-.179-5.058 1.71-20.367 3.902-33.886 4.321-25.404 4.178-33.53-1.754-63.61-6.148-32.071-6.399-30.994 21.551-94.55l24.309-55.645 8.494-3.2c21.724-8.382 40.652 18.55 35.826 51.088-3.872 25.361-17.426 42.735-47.431 61.287-8.011 5.069-14.951 9.654-15.211 10.253-1.47 3.395 5.797 2.036 17.765-3.218 12.591-5.695 13.852-5.624 13.203-1.636-1.327 11.522 10.589 28.777 24.013 34.589 11.247 4.87 33.496.748 65.408-11.761 15.105-6.03 16.885-7.156 11.201-7.958-4.061-.572-3.974-.772 5.049-9.672 16.008-16.074 25.301-30.076 33.31-50.562l7.144-18.49 4.974 6.423c6.174 8.128 16.841 15.83 18.052 13.034.519-1.198-2.278-6.678-6.337-12.23-13.392-19.318-15.757-46.194-6.245-68.164 10.983-25.365 40.429-29.692 48.749-7.116zm86.742 69.814c1.44 5.13.54 10.195-4.088 23.37-5.579 15.372-6.893 17.412-16.193 25.955-17.977 16.645-25.822 36.254-22.564 57.587 2.067 15.126-.968 21.638-10.247 21.178-16.312-1.133-41.771 14.881-53.416 33.318l-4.461 7.318-4.669-14.591c-2.39-7.913-7.457-19.594-10.901-26.066l-6.596-11.631 6.264-2.031c14.145-4.311 35.192-25.556 43.865-44.095 5.033-10.628 6.727-11.555 8.374-4.912.492 2.347 2.555 7.035 4.42 10.689 5.948 10.639 8.741 5.682 5.152-8.916-4.959-20.884-3.97-31.129 4.807-48.911 13.904-28.132 32.968-39.326 49.967-29.831 6.453 3.505 9.026 6.517 10.286 11.569zm21.421 55.998c4.81 7.3 5.282 13.671 3.121 39.061-.903 10.045-1.462 24.27-1.059 31.797s-.326 17.172-1.244 21.281c-2.518 10.294-14.491 25.507-33.981 43.157-8.772 7.823-20.968 20.567-27.218 28.534s-11.28 13.615-11.392 12.381c-.369-5.615 4.752-21.423 13.935-41.638 8.397-18.895 9.929-23.924 9.88-31.772-.272-10.316-4.502-20.449-10.254-25.074-1.831-1.741-3.308-3.804-2.875-4.802 1.124-2.597 1.763-2.083 8.032 6.324s20.297 17.8 21.767 14.405c.519-1.199-2.538-6.08-6.588-11.154-16.278-19.618-19.778-39.395-10.524-60.766 6.486-14.98 15.682-24.28 28.471-28.941 9.574-3.206 14.464-1.564 19.929 7.207z" fill="#444"/></svg>

<svg width="100%" height="100%" viewBox="0 0 579 637" fill="none" xmlns="http://www.w3.org/2000/svg">
<path d="M163.277 116.736L114.438 238.341L123.175 307.507L112.271 308.78L77.2863 324.144L47.2541 384.696L68.1716 479.84L108.355 514.13L153.515 516.793L174.934 495.01L239.015 511.859L374.39 477.304L418.386 422.253L449.818 391.184L503.506 325.074L503.681 295.728L504.831 251.547L500.753 218.18L475.55 215.985L474.552 201.931L484.59 168.682L460.484 153.886L424.336 164.387L402.283 215.318L373.883 260.776L356.849 268.657L381.683 211.302L394.303 172.088L396.493 130.538L391.848 90.9312L366.153 79.8057L335.468 104.115L329.101 138.953L320.658 184.879L288.771 232.097L254.983 261.056L199.119 259.206L185.699 231.056L198.248 210.882L219.662 172.751L218.962 131.584L192.255 110.212L163.277 116.736Z" fill="#F6F6F6"/>
<path d="M368.904 74.6092C352.445 75.3092 331.727 94.7994 325.602 114.916C323.993 120.623 322.709 134.534 322.635 145.649C322.981 165.247 322.644 166.524 314.42 185.02C299.104 219.894 273.407 247.901 250.137 255.376C217.915 265.616 192.828 256.888 189.822 234.478C188.995 228.428 189.609 227.508 200.404 217.003C214.475 203.41 221.124 192.533 225.07 176.454C229.189 159.975 228.651 144.8 223.844 132.521C211.044 100.889 181.732 92.467 160.34 114.511C153.356 121.685 152.31 123.604 145.415 145.996C139.618 164.358 135.035 174.943 125.628 192.69C106.026 229.502 104.571 238.834 113.298 279.374L118.032 302.769L109.038 303.144C97.797 303.732 87.185 309.335 74.428 320.888C65.5689 328.911 63.9089 331.749 54.8286 352.721C46.6995 371.495 44.5713 378.4 43.2617 390.878C40.1215 422.011 48.9962 460.718 65.3757 486.072C76.4796 503.213 87.6297 512.784 105.045 520.324C117.561 525.744 121.535 526.516 134.21 525.6C152.009 524.294 166.302 518.15 173.874 508.621L179.51 501.575L190.757 506.445C196.925 509.115 211.119 512.652 222.125 514.097C261.555 519.549 305.605 511.347 354.454 489.57C390.446 473.61 402.503 463.177 415.377 437.919C419.986 428.767 425.675 419.609 427.896 417.962C430.022 416.037 439.297 406.059 448.209 395.925C457.388 385.669 469.23 373.246 474.545 368.432C490.319 354.39 500.087 341.781 505.794 328.599C510.637 317.414 511.019 313.547 510.483 293.393C509.9 280.808 510.408 263.714 511.518 255.182C514.726 227.873 503.752 207.943 485.755 208.214L478.109 208.461L482.425 197.997C488.651 183.616 489.104 173.614 484.331 163.246C473.765 140.883 445.47 139.068 422.247 159.37C412.411 168.156 413.976 165.039 391.291 220.913C384.563 237.448 380.724 244.324 373.938 252.533L365.121 262.946L381.942 221.609C400.303 175.721 402.225 167.303 402.467 124.954C402.782 91.8869 390.582 73.7969 368.904 74.6092ZM388.574 102.811C392.354 112.986 392.591 126.37 389.537 157.303L387.099 182.337L370.347 222.518C352.999 264.575 346.903 276.166 340.854 280.187C337.38 282.241 336.291 281.77 328.527 275.324C318.482 267.18 306.501 261.518 305.29 264.314C304.858 265.313 306.421 267.176 308.96 268.275C315.854 271.26 329.697 285.555 336.19 296.43C347.406 314.805 356.991 347.891 357.553 369.479C357.663 375.693 358.791 383.534 359.749 386.795C360.888 390.134 360.878 394.636 360.013 396.633C359.062 398.83 358.169 404.373 357.978 408.797C357.699 413.42 355.337 422.358 352.751 428.828C347.917 440.49 347.917 440.49 353.017 433.686C358.471 426.561 360.355 426.191 361.813 432.277C362.882 436.772 367.339 439.413 368.637 436.417C369.155 435.219 368.776 434.106 367.687 433.635C365.692 432.771 363.464 408.563 365.107 404.768C365.885 402.971 367.872 403.357 371.155 405.727C373.893 407.861 376.337 408.682 376.683 407.883C377.029 407.084 375.373 399.964 373.07 391.851C365.693 366.6 372.2 342.617 390.894 325.809C400.644 317.223 419.714 311.487 427.514 314.864C440.213 320.362 439.646 334.11 425.465 361.886C418.159 376.273 415.33 384.298 411.582 401.411C402.745 441.225 395.63 451.188 363.638 469.355C305.081 502.107 233.497 510.72 186.876 490.534C158.758 478.359 134.283 453.294 128.115 430.227C126.104 423.427 123.938 417.983 123.134 418.346C118.313 420.528 126.523 457.287 132.328 459.8C133.416 460.271 133.796 461.384 133.363 462.383C131.374 466.977 117.031 449.856 111.299 436.228C109.323 431.34 107.199 428.286 106.68 429.484C105.383 432.48 116.839 454.279 124.378 463.236C127.962 467.396 133.99 472.378 138.162 474.185C142.153 475.913 148.528 480.096 152.371 483.658C156.033 487.141 161.06 491.452 163.703 493.307C166.078 495.285 167.649 497.625 167.13 498.824C166.698 499.822 160.372 503.487 153.139 506.759C136.798 514.151 122.292 513.325 104.489 504.193C70.6111 486.916 49.0863 430.161 57.9362 380.867C64.2488 345.89 87.1219 315.949 109.759 313.417C113.354 313.076 116.783 313.613 117.517 314.405C119.279 317.302 115.271 335.015 110.342 346.399C105.153 358.383 103.093 369.112 104.152 378.109C105.384 386.706 107.242 384.902 107.695 374.9C107.974 370.277 109.039 364.335 110.077 361.938C112.074 357.822 112.445 358.457 114.403 367.369C115.757 372.698 117.915 377.665 119.366 378.293C122.632 379.707 122.891 379.108 122.602 367.835C122.423 362.777 124.312 347.468 126.504 333.949C130.825 308.545 130.682 300.419 124.75 270.339C118.602 238.268 118.351 239.345 146.301 175.789L170.61 120.144L179.104 116.944C200.828 108.562 219.756 135.494 214.93 168.032C211.058 193.393 197.504 210.767 167.499 229.319C159.488 234.388 152.548 238.973 152.288 239.572C150.818 242.967 158.085 241.608 170.053 236.354C182.644 230.659 183.905 230.73 183.256 234.718C181.929 246.24 193.845 263.495 207.269 269.307C218.516 274.177 240.765 270.055 272.677 257.546C287.782 251.516 289.562 250.39 283.878 249.588C279.817 249.016 279.904 248.816 288.927 239.916C304.935 223.842 314.228 209.84 322.237 189.354L329.381 170.864L334.355 177.287C340.529 185.415 351.196 193.117 352.407 190.321C352.926 189.123 350.129 183.643 346.07 178.091C332.678 158.773 330.313 131.897 339.825 109.927C350.808 84.5618 380.254 80.2353 388.574 102.811ZM475.316 172.625C476.756 177.755 475.856 182.82 471.228 195.995C465.649 211.367 464.335 213.407 455.035 221.95C437.058 238.595 429.213 258.204 432.471 279.537C434.538 294.663 431.503 301.175 422.224 300.715C405.912 299.582 380.453 315.596 368.808 334.033L364.347 341.351L359.678 326.76C357.288 318.847 352.221 307.166 348.777 300.694L342.181 289.063L348.445 287.032C362.59 282.721 383.637 261.476 392.31 242.937C397.343 232.309 399.037 231.382 400.684 238.025C401.176 240.372 403.239 245.06 405.104 248.714C411.052 259.353 413.845 254.396 410.256 239.798C405.297 218.914 406.286 208.669 415.063 190.887C428.967 162.755 448.031 151.561 465.03 161.056C471.483 164.561 474.056 167.573 475.316 172.625ZM496.737 228.623C501.547 235.923 502.019 242.294 499.858 267.684C498.955 277.729 498.396 291.954 498.799 299.481C499.202 307.008 498.473 316.653 497.555 320.762C495.037 331.056 483.064 346.269 463.574 363.919C454.802 371.742 442.606 384.486 436.356 392.453C430.106 400.42 425.076 406.068 424.964 404.834C424.595 399.219 429.716 383.411 438.899 363.196C447.296 344.301 448.828 339.272 448.779 331.424C448.507 321.108 444.277 310.975 438.525 306.35C436.694 304.609 435.217 302.546 435.65 301.548C436.774 298.951 437.413 299.465 443.682 307.872C449.951 316.278 463.979 325.672 465.449 322.277C465.968 321.078 462.911 316.197 458.861 311.123C442.583 291.505 439.083 271.728 448.337 250.357C454.823 235.377 464.019 226.077 476.808 221.416C486.382 218.21 491.272 219.852 496.737 228.623Z" fill="#444444"/>
</svg>
